Sources/FrostedUI/Resources/Icons.xcassets/twitterSize24.imageset/twitter-size-24.svg

<svg
  width="25"
  height="24"
  viewBox="0 0 25 24"
  fill="none"
  xmlns="http://www.w3.org/2000/svg"
  data-fui-icon="true"
>
  <path
    d="M5.35781 13.8435C5.17969 13.9215 4.54516 13.9922 4.125 13.9922C3.93843 13.9922 3.76126 13.9851 3.58561 13.9668C3.44401 13.952 3.3278 14.0865 3.38136 14.2184C4.05139 15.8685 5.67747 17.0429 7.58542 17.076C6.00489 18.2952 4.01412 19.0219 1.85191 19.0219C1.75785 19.0219 1.66411 19.0205 1.5707 19.0178C1.37133 19.012 1.28418 19.2803 1.45911 19.3761C3.34541 20.4095 5.51442 21 7.82522 21C16.3175 21 20.96 14.0766 20.96 8.07207C20.96 7.87699 20.955 7.67996 20.9461 7.48488C21.8478 6.84307 22.6307 6.04422 23.248 5.13417V5.13417C23.2486 5.13333 23.2477 5.13226 23.2468 5.13266C22.5251 5.44711 21.7567 5.67254 20.9521 5.79794C20.8719 5.81043 20.8323 5.70022 20.8988 5.65378C21.5718 5.18395 22.1118 4.5408 22.451 3.79041C22.522 3.63342 22.3505 3.48962 22.1973 3.56854C21.422 3.96811 20.5822 4.26312 19.6975 4.43384C18.8552 3.55208 17.6562 3 16.3284 3C13.7797 3 11.7126 5.03468 11.7126 7.54536C11.7126 7.9004 11.7543 8.24569 11.8315 8.57928C8.08942 8.39382 4.76371 6.66897 2.48916 4.03498C2.40422 3.93662 2.2472 3.94938 2.18791 4.06502C1.87134 4.68241 1.69237 5.379 1.69237 6.11542C1.69237 7.69167 2.50791 9.08356 3.74557 9.89802C3.00932 9.8743 2.31617 9.68084 1.70623 9.35712C1.68296 9.34476 1.65472 9.36153 1.65472 9.38788V9.38788C1.65472 11.5721 3.22026 13.3971 5.3081 13.8334M5.35781 13.8435C5.34121 13.8402 5.32464 13.8369 5.3081 13.8334M5.35781 13.8435L5.3081 13.8334"
    stroke="currentColor"
    stroke-width="1.5"
  />
</svg>

<svg xmlns="http://www.w3.org/2000/svg" width="25" height="24" fill="none" data-fui-icon="true" viewBox="0 0 25 24"><path stroke="currentColor" stroke-width="1.5" d="M5.358 13.844c-.178.078-.813.148-1.233.148-.187 0-.364-.007-.54-.025-.141-.015-.257.12-.204.251a4.62 4.62 0 0 0 4.204 2.858 9.36 9.36 0 0 1-6.014 1.942c-.2-.006-.287.262-.112.358A13.2 13.2 0 0 0 7.825 21c8.493 0 13.135-6.923 13.135-12.928q0-.294-.014-.587a9.3 9.3 0 0 0 2.302-2.35q0-.003-.001-.002c-.722.314-1.49.54-2.295.665-.08.012-.12-.098-.053-.144A4.6 4.6 0 0 0 22.45 3.79c.071-.157-.1-.3-.254-.221-.775.4-1.615.694-2.5.865A4.65 4.65 0 0 0 16.329 3c-2.548 0-4.615 2.035-4.615 4.545q.001.533.119 1.034a13.18 13.18 0 0 1-9.343-4.544c-.085-.098-.242-.086-.301.03a4.5 4.5 0 0 0-.496 2.05c0 1.577.816 2.969 2.054 3.783a4.66 4.66 0 0 1-2.04-.54.035.035 0 0 0-.051.03c0 2.184 1.565 4.01 3.653 4.445m.05.01-.05-.01m.05.01-.05-.01"/></svg>
